img/icons/instruments/kick.svg

<svg fill="none" viewBox="0 0 16 16" xmlns="http://www.w3.org/2000/svg"><path d="m7.5 6.5c0.828 0 1.5 0.672 1.5 1.5 0 0.653-0.417 1.21-0.999 1.41l-9e-4 1.59h0.18c0.477 0 0.887 0.336 0.981 0.804l0.6 3c0.108 0.542-0.243 1.07-0.784 1.18-0.0646 0.0129-0.13 0.0194-0.196 0.0194h-2.56c-0.552 0-1-0.448-1-1 0-0.0658 0.00651-0.132 0.0194-0.196l0.6-3c0.0935-0.467 0.504-0.804 0.981-0.804h0.18l-5e-4 -1.59c-0.582-0.206-0.999-0.762-0.999-1.41 0-0.828 0.672-1.5 1.5-1.5zm0-6.5c4.14 0 7.5 3.42 7.5 7.64 0 1.92-0.698 3.72-1.92 5.11l0.856 1.5c0.137 0.24 0.0537 0.545-0.186 0.682-0.24 0.137-0.545 0.0537-0.682-0.186l-0.742-1.3c-0.185 0.067-0.4 0.0207-0.54-0.134-0.186-0.204-0.171-0.521 0.0338-0.706 1.38-1.25 2.18-3.04 2.18-4.97 0-3.67-2.91-6.64-6.5-6.64-3.59 0-6.5 2.97-6.5 6.64 0 1.93 0.808 3.72 2.19 4.98 0.205 0.185 0.221 0.502 0.0354 0.706-0.144 0.16-0.368 0.204-0.557 0.129l-0.738 1.29c-0.137 0.24-0.442 0.323-0.682 0.186s-0.323-0.442-0.186-0.682l0.856-1.5c-1.22-1.39-1.92-3.19-1.92-5.11 0-4.22 3.36-7.64 7.5-7.64z" fill="#000"/></svg>

<svg xmlns="http://www.w3.org/2000/svg" viewBox="0 0 16 16" fill="none">
  <path fill="#000"
    d="M7.5 6.5A1.5 1.5 0 0 1 8 9.415V11h.18a1 1 0 0 1 .98.804l.6 3A1 1 0 0 1 8.78 16H6.22a1 1 0 0 1-.98-1.196l.6-3A1 1 0 0 1 6.82 11H7V9.415A1.5 1.5 0 0 1 7.5 6.5Zm0-6.5C11.644 0 15 3.425 15 7.644a7.703 7.703 0 0 1-1.922 5.11l.856 1.498a.5.5 0 0 1-.868.496l-.743-1.296a.5.5 0 0 1-.506-.84A6.69 6.69 0 0 0 14 7.643C14 3.973 11.088 1 7.5 1S1 3.973 1 7.644a6.69 6.69 0 0 0 2.194 4.977.5.5 0 0 1-.521.835l-.739 1.292a.5.5 0 0 1-.868-.496l.855-1.498A7.702 7.702 0 0 1 0 7.644C0 3.424 3.356 0 7.5 0Z" />
</svg>
